X: 06007
T: BOB TOPPAN'S REEL
C: Bob McQuillen 20 Feb 82
B: Bob's Note Book 6 #7
%R: C
Z: 2021 John Chambers <jc:trillian.mit.edu>
M: C
L: 1/8
K: D
fg \
| afdf geag | fafd A2ef | gfeg fded | c2e2 e2fg |\
| afdf geag | fafd Afed | cdef gecd | e2d2 d2 :|
|: AG \
| FAde fdBA | FAde fdBA | FAdf abag | fafd e2AG |\
| FAde fdBA | FAde faba | gbag fded | A2d2 d2 :|
%%begintext align
%% Bob's been dancing for many years,
%% and he sure is an old friend of mine.
%%endtext

% %newpage
% %vskip 5.1cm
% %center --- 06008 spacer ---
% %sep 1 1 500

%%sep 1 1 500

%%sep 1 1 500

